wilib/img/svg/lata_lixo.svg

<svg xmlns="http://www.w3.org/2000/svg" xmlns:xlink="http://www.w3.org/1999/xlink" preserveAspectRatio="none" width="71" height="109" viewBox="0 0 71 109"><defs><linearGradient id="a" gradientUnits="userSpaceOnUse" x1="-.15" y1="-37.413" x2="-.15" y2="44.013"><stop offset="0%" stop-color="#FFF"/><stop offset="100%" stop-color="#999"/></linearGradient><g id="b"><path fill="#C4C4C4" d="M27.05 43.6q-1.05.2-2.2.4Q14.6 45.95.1 45.95T-24.7 44q-1.15-.2-2.2-.4-6.55-1.4-7.7-3.25l.05 8.35q1.55 2.05 9.85 3.6 10.3 1.85 24.8 1.85t24.75-1.85q10.25-1.9 10.25-4.55v-.35q-.05-.1-.15-.25v-7.1q-.85 2-7.9 3.55m6.05-80.85q1.5-.75 1.85-1.65v-8.2q-.85 2-7.9 3.55-1.05.2-2.2.4-1.4.3-2.9.5-9.35 1.4-21.85 1.4-12.55 0-21.9-1.4-1.5-.2-2.9-.5-1.15-.2-2.2-.4-8.05-1.75-8.05-4.15l-.15.05.25 8.55q.25.9 1.65 1.7 2.45 1.35 8.5 2.5Q-14.4-33 .1-33t24.75-1.9q5.45-1 8-2.2.15-.05.25-.15z"/><path fill="#EAEAEA" d="M25.5 42.15q-.95.2-2.05.35Q13.85 44 .25 44t-23.2-1.5q-1.05-.15-2.05-.35-6.1-1.1-8.2-3.75v-.95q-1 .5-1.4 1.1v1.8q1.15 1.85 7.7 3.25 1.05.2 2.2.4 10.3 1.95 24.8 1.95T24.85 44q1.15-.2 2.2-.4 7.05-1.55 7.9-3.55l.15-.85q-.25-1.05-2-1.9h-.2v1.55q-1.15 2.2-7.4 3.3m-3.55-84.8Q12.6-44.05.1-44.05q-12.55 0-21.9 1.4 9.35 1.4 21.9 1.4 12.5 0 21.85-1.4m-52.7 14.75q-.25.25-.35.55v59.3q0 .65.45 1.1.4.5 1 .5.65 0 1-.5.45-.45.45-1.1V-26q-.25-.4-.5-.95-.8-1.55-.85-1.55-.75 0-1.2.6m16.2 6.3q-.8-1.7-2.75-1.7-.85 0-.95.05-.15.1-.7.65l-.2.1v57.85q0 1.2.75 2.05.8.85 1.9.85 1.1 0 1.85-.85.8-.85.8-2.05v-54.2q-.45-2.3-.7-2.75M2.6-18.65q-.05-1.25-.85-2.15-.85-.9-2.05-.9h-1.1q-1.2 0-2.05.9-.8.95-.85 2.2v55.1q0 1.35.85 2.25.85.95 2.05.95h1.1q1.2 0 2.05-.95.85-.9.85-2.25v-55.15m12.65-2.8q-1.15 0-2.35 1-1.2.95-1.3 2.15V35q0 1.15.7 1.9t1.7.75q1 0 1.7-.75t.7-1.9v-55.75q-.2-.15-.45-.4-.35-.3-.7-.3M28.1-17.8q-.25-.6-.45-1.15-.85-2.1-1.35-2.1-.6 0-1.5 2-.1.2-.15.45v51.75q0 .75.5 1.3t1.2.55q.7 0 1.2-.55.55-.55.55-1.3V-17.8m-3.25-34.5Q14.6-54.15.1-54.15t-24.8 1.85q-10.25 1.9-10.25 4.6 0 2.4 8.05 4.15 1.05-.25 2.2-.5Q-14.4-45.9.1-45.9t24.75 1.85q1.15.25 2.2.5 7.05-1.55 7.9-3.55v-1.15Q34-50.6 24.85-52.3z"/><path fill="url(#a)" d="M32.85-37.1q-2.55 1.2-8 2.2Q14.6-33 .1-33t-24.8-1.9q-6.05-1.15-8.5-2.5v75.8q2.1 2.65 8.2 3.75 1 .2 2.05.35 9.6 1.5 23.2 1.5t23.2-1.5q1.1-.15 2.05-.35 6.25-1.1 7.4-3.3V37.3l-.05-74.4m-6.5 5.55q.7 0 1.2.6.55.55.55 1.3V33.15q0 .75-.55 1.3-.5.55-1.2.55t-1.2-.55q-.5-.55-.5-1.3v-62.8q0-.75.5-1.3.5-.6 1.2-.6m-14.05 2.8q.7-.75 1.7-.75t1.7.75q.7.8.7 1.9V35q0 1.15-.7 1.9t-1.7.75q-1 0-1.7-.75t-.7-1.9V-26.85q0-1.1.7-1.9M1.75-27.7q.85.95.85 2.3v61.9q0 1.35-.85 2.25-.85.95-2.05.95h-1.1q-1.2 0-2.05-.95-.85-.9-.85-2.25v-61.9q0-1.35.85-2.3.85-.9 2.05-.9h1.1q1.2 0 2.05.9m-16.4-1.25q.8.9.8 2.1v62.2q0 1.2-.8 2.05-.75.85-1.85.85t-1.9-.85q-.75-.85-.75-2.05v-62.2q0-1.2.75-2.1.8-.85 1.9-.85 1.1 0 1.85.85m-16.45 1.6v-4.35q0-.65.45-1.15.4-.45 1-.45.65 0 1 .45.45.5.45 1.15V31.95q0 .65-.45 1.1-.35.5-1 .5-.6 0-1-.5-.45-.45-.45-1.1v-59.3z"/><path fill="#AAA" d="M-31.1-31.7v4.35q.1-.3.35-.55.45-.6 1.2-.6.05 0 .85 1.55.25.55.5.95v-5.7q0-.65-.45-1.15-.35-.45-1-.45-.6 0-1 .45-.45.5-.45 1.15m17.25 4.85q0-1.2-.8-2.1-.75-.85-1.85-.85t-1.9.85q-.75.9-.75 2.1v4.35l.2-.1q.55-.55.7-.65.1-.05.95-.05 1.95 0 2.75 1.7.25.45.7 2.75v-8M2.6-25.4q0-1.35-.85-2.3-.85-.9-2.05-.9h-1.1q-1.2 0-2.05.9-.85.95-.85 2.3v6.8q.05-1.25.85-2.2.85-.9 2.05-.9h1.1q1.2 0 2.05.9.8.9.85 2.15v-6.75M14-29.5q-1 0-1.7.75-.7.8-.7 1.9v8.55q.1-1.2 1.3-2.15 1.2-1 2.35-1 .35 0 .7.3.25.25.45.4v-6.1q0-1.1-.7-1.9-.7-.75-1.7-.75m13.55-1.45q-.5-.6-1.2-.6t-1.2.6q-.5.55-.5 1.3v11.05q.05-.25.15-.45.9-2 1.5-2 .5 0 1.35 2.1.2.55.45 1.15v-11.85q0-.75-.55-1.3z"/><path fill="#CCC" d="M21.95-42.65q1.5-.2 2.9-.5 1.15-.2 2.2-.4-1.05-.25-2.2-.5Q14.6-45.9.1-45.9t-24.8 1.85q-1.15.25-2.2.5 1.05.2 2.2.4 1.4.3 2.9.5 9.35-1.4 21.9-1.4 12.5 0 21.85 1.4z"/></g></defs><use xlink:href="#b" transform="translate(35.1 54.15)"/></svg>

<svg xmlns="http://www.w3.org/2000/svg" version="1.1" xmlns:xlink="http://www.w3.org/1999/xlink" preserveAspectRatio="none" x="0px" y="0px" width="71px" height="109px" viewBox="0 0 71 109">
<defs>
<linearGradient id="Gradient_1" gradientUnits="userSpaceOnUse" x1="-0.15" y1="-37.41250000000001" x2="-0.15" y2="44.0125" spreadMethod="pad">
<stop  offset="0%" stop-color="#FFFFFF"/>

<stop  offset="100%" stop-color="#999999"/>
</linearGradient>

<g id="lixo_01_0_Layer0_0_FILL">
<path fill="#C4C4C4" stroke="none" d="
M 27.05 43.6
Q 26 43.8 24.85 44 14.6 45.95 0.1 45.95 -14.4 45.95 -24.7 44 -25.85 43.8 -26.9 43.6 -33.45 42.2 -34.6 40.35
L -34.55 48.7
Q -33 50.75 -24.7 52.3 -14.4 54.15 0.1 54.15 14.6 54.15 24.85 52.3 35.1 50.4 35.1 47.75 35.1 47.55 35.1 47.4 35.05 47.3 34.95 47.15
L 34.95 40.05
Q 34.1 42.05 27.05 43.6
M 33.1 -37.25
Q 34.6 -38 34.95 -38.9
L 34.95 -47.1
Q 34.1 -45.1 27.05 -43.55 26 -43.35 24.85 -43.15 23.45 -42.85 21.95 -42.65 12.6 -41.25 0.1 -41.25 -12.45 -41.25 -21.8 -42.65 -23.3 -42.85 -24.7 -43.15 -25.85 -43.35 -26.9 -43.55 -34.95 -45.3 -34.95 -47.7
L -35.1 -47.65 -34.85 -39.1
Q -34.6 -38.2 -33.2 -37.4 -30.75 -36.05 -24.7 -34.9 -14.4 -33 0.1 -33 14.6 -33 24.85 -34.9 30.3 -35.9 32.85 -37.1 33 -37.15 33.1 -37.25 Z"/>

<path fill="#EAEAEA" stroke="none" d="
M 25.5 42.15
Q 24.55 42.35 23.45 42.5 13.85 44 0.25 44 -13.35 44 -22.95 42.5 -24 42.35 -25 42.15 -31.1 41.05 -33.2 38.4
L -33.2 37.45
Q -34.2 37.95 -34.6 38.55
L -34.6 40.35
Q -33.45 42.2 -26.9 43.6 -25.85 43.8 -24.7 44 -14.4 45.95 0.1 45.95 14.6 45.95 24.85 44 26 43.8 27.05 43.6 34.1 42.05 34.95 40.05
L 35.1 39.2
Q 34.85 38.15 33.1 37.3
L 32.9 37.3 32.9 38.85
Q 31.75 41.05 25.5 42.15
M 21.95 -42.65
Q 12.6 -44.05 0.1 -44.05 -12.45 -44.05 -21.8 -42.65 -12.45 -41.25 0.1 -41.25 12.6 -41.25 21.95 -42.65
M -30.75 -27.9
Q -31 -27.65 -31.1 -27.35
L -31.1 31.95
Q -31.1 32.6 -30.65 33.05 -30.25 33.55 -29.65 33.55 -29 33.55 -28.65 33.05 -28.2 32.6 -28.2 31.95
L -28.2 -26
Q -28.45 -26.4 -28.7 -26.95 -29.5 -28.5 -29.55 -28.5 -30.3 -28.5 -30.75 -27.9
M -14.55 -21.6
Q -15.35 -23.3 -17.3 -23.3 -18.15 -23.3 -18.25 -23.25 -18.4 -23.15 -18.95 -22.6 -19.05 -22.55 -19.15 -22.5
L -19.15 35.35
Q -19.15 36.55 -18.4 37.4 -17.6 38.25 -16.5 38.25 -15.4 38.25 -14.65 37.4 -13.85 36.55 -13.85 35.35
L -13.85 -18.85
Q -14.3 -21.15 -14.55 -21.6
M 2.6 -18.65
Q 2.55 -19.9 1.75 -20.8 0.9 -21.7 -0.3 -21.7
L -1.4 -21.7
Q -2.6 -21.7 -3.45 -20.8 -4.25 -19.85 -4.3 -18.6
L -4.3 36.5
Q -4.3 37.85 -3.45 38.75 -2.6 39.7 -1.4 39.7
L -0.3 39.7
Q 0.9 39.7 1.75 38.75 2.6 37.85 2.6 36.5
L 2.6 -18.65
M 15.25 -21.45
Q 14.1 -21.45 12.9 -20.45 11.7 -19.5 11.6 -18.3
L 11.6 35
Q 11.6 36.15 12.3 36.9 13 37.65 14 37.65 15 37.65 15.7 36.9 16.4 36.15 16.4 35
L 16.4 -20.75
Q 16.2 -20.9 15.95 -21.15 15.6 -21.45 15.25 -21.45
M 28.1 -17.8
Q 27.85 -18.4 27.65 -18.95 26.8 -21.05 26.3 -21.05 25.7 -21.05 24.8 -19.05 24.7 -18.85 24.65 -18.6
L 24.65 33.15
Q 24.65 33.9 25.15 34.45 25.65 35 26.35 35 27.05 35 27.55 34.45 28.1 33.9 28.1 33.15
L 28.1 -17.8
M 24.85 -52.3
Q 14.6 -54.15 0.1 -54.15 -14.4 -54.15 -24.7 -52.3 -34.95 -50.4 -34.95 -47.7 -34.95 -45.3 -26.9 -43.55 -25.85 -43.8 -24.7 -44.05 -14.4 -45.9 0.1 -45.9 14.6 -45.9 24.85 -44.05 26 -43.8 27.05 -43.55 34.1 -45.1 34.95 -47.1
L 34.95 -48.25
Q 34 -50.6 24.85 -52.3 Z"/>

<path fill="url(#Gradient_1)" stroke="none" d="
M 32.85 -37.1
Q 30.3 -35.9 24.85 -34.9 14.6 -33 0.1 -33 -14.4 -33 -24.7 -34.9 -30.75 -36.05 -33.2 -37.4
L -33.2 37.45 -33.2 38.4
Q -31.1 41.05 -25 42.15 -24 42.35 -22.95 42.5 -13.35 44 0.25 44 13.85 44 23.45 42.5 24.55 42.35 25.5 42.15 31.75 41.05 32.9 38.85
L 32.9 37.3 32.85 -37.1
M 26.35 -31.55
Q 27.05 -31.55 27.55 -30.95 28.1 -30.4 28.1 -29.65
L 28.1 -17.8 28.1 33.15
Q 28.1 33.9 27.55 34.45 27.05 35 26.35 35 25.65 35 25.15 34.45 24.65 33.9 24.65 33.15
L 24.65 -18.6 24.65 -29.65
Q 24.65 -30.4 25.15 -30.95 25.65 -31.55 26.35 -31.55
M 12.3 -28.75
Q 13 -29.5 14 -29.5 15 -29.5 15.7 -28.75 16.4 -27.95 16.4 -26.85
L 16.4 -20.75 16.4 35
Q 16.4 36.15 15.7 36.9 15 37.65 14 37.65 13 37.65 12.3 36.9 11.6 36.15 11.6 35
L 11.6 -18.3 11.6 -26.85
Q 11.6 -27.95 12.3 -28.75
M 1.75 -27.7
Q 2.6 -26.75 2.6 -25.4
L 2.6 -18.65 2.6 36.5
Q 2.6 37.85 1.75 38.75 0.9 39.7 -0.3 39.7
L -1.4 39.7
Q -2.6 39.7 -3.45 38.75 -4.3 37.85 -4.3 36.5
L -4.3 -18.6 -4.3 -25.4
Q -4.3 -26.75 -3.45 -27.7 -2.6 -28.6 -1.4 -28.6
L -0.3 -28.6
Q 0.9 -28.6 1.75 -27.7
M -14.65 -28.95
Q -13.85 -28.05 -13.85 -26.85
L -13.85 -18.85 -13.85 35.35
Q -13.85 36.55 -14.65 37.4 -15.4 38.25 -16.5 38.25 -17.6 38.25 -18.4 37.4 -19.15 36.55 -19.15 35.35
L -19.15 -22.5 -19.15 -26.85
Q -19.15 -28.05 -18.4 -28.95 -17.6 -29.8 -16.5 -29.8 -15.4 -29.8 -14.65 -28.95
M -31.1 -27.35
L -31.1 -31.7
Q -31.1 -32.35 -30.65 -32.85 -30.25 -33.3 -29.65 -33.3 -29 -33.3 -28.65 -32.85 -28.2 -32.35 -28.2 -31.7
L -28.2 -26 -28.2 31.95
Q -28.2 32.6 -28.65 33.05 -29 33.55 -29.65 33.55 -30.25 33.55 -30.65 33.05 -31.1 32.6 -31.1 31.95
L -31.1 -27.35 Z"/>

<path fill="#AAAAAA" stroke="none" d="
M -31.1 -31.7
L -31.1 -27.35
Q -31 -27.65 -30.75 -27.9 -30.3 -28.5 -29.55 -28.5 -29.5 -28.5 -28.7 -26.95 -28.45 -26.4 -28.2 -26
L -28.2 -31.7
Q -28.2 -32.35 -28.65 -32.85 -29 -33.3 -29.65 -33.3 -30.25 -33.3 -30.65 -32.85 -31.1 -32.35 -31.1 -31.7
M -13.85 -26.85
Q -13.85 -28.05 -14.65 -28.95 -15.4 -29.8 -16.5 -29.8 -17.6 -29.8 -18.4 -28.95 -19.15 -28.05 -19.15 -26.85
L -19.15 -22.5
Q -19.05 -22.55 -18.95 -22.6 -18.4 -23.15 -18.25 -23.25 -18.15 -23.3 -17.3 -23.3 -15.35 -23.3 -14.55 -21.6 -14.3 -21.15 -13.85 -18.85
L -13.85 -26.85
M 2.6 -25.4
Q 2.6 -26.75 1.75 -27.7 0.9 -28.6 -0.3 -28.6
L -1.4 -28.6
Q -2.6 -28.6 -3.45 -27.7 -4.3 -26.75 -4.3 -25.4
L -4.3 -18.6
Q -4.25 -19.85 -3.45 -20.8 -2.6 -21.7 -1.4 -21.7
L -0.3 -21.7
Q 0.9 -21.7 1.75 -20.8 2.55 -19.9 2.6 -18.65
L 2.6 -25.4
M 14 -29.5
Q 13 -29.5 12.3 -28.75 11.6 -27.95 11.6 -26.85
L 11.6 -18.3
Q 11.7 -19.5 12.9 -20.45 14.1 -21.45 15.25 -21.45 15.6 -21.45 15.95 -21.15 16.2 -20.9 16.4 -20.75
L 16.4 -26.85
Q 16.4 -27.95 15.7 -28.75 15 -29.5 14 -29.5
M 27.55 -30.95
Q 27.05 -31.55 26.35 -31.55 25.65 -31.55 25.15 -30.95 24.65 -30.4 24.65 -29.65
L 24.65 -18.6
Q 24.7 -18.85 24.8 -19.05 25.7 -21.05 26.3 -21.05 26.8 -21.05 27.65 -18.95 27.85 -18.4 28.1 -17.8
L 28.1 -29.65
Q 28.1 -30.4 27.55 -30.95 Z"/>

<path fill="#CCCCCC" stroke="none" d="
M 21.95 -42.65
Q 23.45 -42.85 24.85 -43.15 26 -43.35 27.05 -43.55 26 -43.8 24.85 -44.05 14.6 -45.9 0.1 -45.9 -14.4 -45.9 -24.7 -44.05 -25.85 -43.8 -26.9 -43.55 -25.85 -43.35 -24.7 -43.15 -23.3 -42.85 -21.8 -42.65 -12.45 -44.05 0.1 -44.05 12.6 -44.05 21.95 -42.65 Z"/>
</g>
</defs>

<g id="lixo_01" transform="matrix( 1, 0, 0, 1, 35.1,54.15) ">
<g transform="matrix( 1, 0, 0, 1, 0,0) ">
<use xlink:href="#lixo_01_0_Layer0_0_FILL"/>
</g>
</g>
</svg>
